icons/PV_Panel_Sun.svg

<svg width="16" height="16" viewBox="0 0 16 16" fill="currentColor" xmlns="http://www.w3.org/2000/svg">
<g clip-path="url(#clip0_4_2187)">
<path d="M8.001 12.6911H1.29167C0.767212 12.6911 0.308899 12.2328 0.308899 11.713L0.734138 8.33474C0.734138 7.83391 1.19245 7.3756 1.71219 7.3756H7.623C8.14274 7.3756 8.60105 7.83391 8.60105 8.35364L9.03102 11.7178V11.7461C8.92235 12.2139 8.53491 12.6864 8.001 12.6864V12.6911ZM1.71691 7.72996C1.3909 7.72996 1.09323 8.02763 1.09323 8.35364L0.667989 11.7319C0.667989 12.039 0.965656 12.3367 1.2964 12.3367H8.00572C8.34119 12.3367 8.59633 12.0201 8.67665 11.7036L8.25614 8.38199C8.25614 8.03235 7.95847 7.73469 7.62773 7.73469H1.71691V7.72996Z" fill="#3D3D3D"/>
<path d="M7.72222 16.0079C7.67025 16.0079 7.60882 16.0079 7.54267 16.0032C7.46708 16.0032 7.38203 15.9984 7.29226 15.9984H2.0004C1.91535 15.9984 1.82558 15.9984 1.74053 16.0032C1.39089 16.0173 1.23024 16.0173 1.13102 15.9228L1.07905 15.8709L1.0696 15.7102L1.6791 14.9968C1.70745 14.9684 1.89172 14.7936 2.28389 14.7936H6.96152C7.30171 14.7936 7.53795 14.8881 7.59465 15.0346L8.08131 15.7149V15.8472L8.01516 15.9276C7.94901 15.9937 7.85452 16.0079 7.72222 16.0079ZM2.28389 15.1432C2.04292 15.1432 1.93897 15.233 1.93425 15.2377L1.57988 15.6535C1.63186 15.6535 1.68383 15.6535 1.72635 15.6535C1.81613 15.6535 1.91062 15.6488 2.0004 15.6488H7.29226C7.38675 15.6488 7.47653 15.6488 7.55685 15.6535C7.57102 15.6535 7.5852 15.6535 7.6041 15.6535L7.27808 15.1999C7.24501 15.1858 7.15051 15.1527 6.96152 15.1527H2.28389V15.1432Z" fill="#3D3D3D"/>
<path d="M8.65775 10.8955H0.630183C0.530961 10.8955 0.450638 10.8152 0.450638 10.716C0.450638 10.6168 0.530961 10.5365 0.630183 10.5365H8.65775C8.75697 10.5365 8.83729 10.6168 8.83729 10.716C8.83729 10.8152 8.75697 10.8955 8.65775 10.8955Z" fill="#3D3D3D"/>
<path d="M8.37899 9.38354H0.866435C0.767212 9.38354 0.68689 9.30321 0.68689 9.20399C0.68689 9.10477 0.767212 9.02444 0.866435 9.02444H8.37899C8.47821 9.02444 8.55853 9.10477 8.55853 9.20399C8.55853 9.30321 8.47821 9.38354 8.37899 9.38354Z" fill="#3D3D3D"/>
<path d="M1.85867 12.691C1.75945 12.691 1.67912 12.6107 1.67912 12.5114V7.78657C1.67912 7.68735 1.75945 7.60703 1.85867 7.60703C1.95789 7.60703 2.03821 7.68735 2.03821 7.78657V12.5114C2.03821 12.6107 1.95789 12.691 1.85867 12.691Z" fill="#3D3D3D"/>
<path d="M2.61463 12.691C2.51541 12.691 2.43509 12.6107 2.43509 12.5114V7.78657C2.43509 7.68735 2.51541 7.60703 2.61463 7.60703C2.71386 7.60703 2.79418 7.68735 2.79418 7.78657V12.5114C2.79418 12.6107 2.71386 12.691 2.61463 12.691Z" fill="#3D3D3D"/>
<path d="M4.26835 12.691C4.16913 12.691 4.08881 12.6107 4.08881 12.5114V7.78657C4.08881 7.68735 4.16913 7.60703 4.26835 7.60703C4.36757 7.60703 4.4479 7.68735 4.4479 7.78657V12.5114C4.4479 12.6107 4.36757 12.691 4.26835 12.691Z" fill="#3D3D3D"/>
<path d="M4.64633 15.1007C4.5471 15.1007 4.46678 15.0204 4.46678 14.9211V12.5115C4.46678 12.4122 4.5471 12.3319 4.64633 12.3319C4.74555 12.3319 4.82587 12.4122 4.82587 12.5115V14.9211C4.82587 15.0204 4.74555 15.1007 4.64633 15.1007Z" fill="#3D3D3D"/>
<path d="M5.02432 12.691C4.92509 12.691 4.84477 12.6107 4.84477 12.5114V7.78657C4.84477 7.68735 4.92509 7.60703 5.02432 7.60703C5.12354 7.60703 5.20386 7.68735 5.20386 7.78657V12.5114C5.20386 12.6107 5.12354 12.691 5.02432 12.691Z" fill="#3D3D3D"/>
<path d="M6.63079 12.691C6.53157 12.691 6.45125 12.6107 6.45125 12.5114V7.78657C6.45125 7.68735 6.53157 7.60703 6.63079 7.60703C6.73002 7.60703 6.81034 7.68735 6.81034 7.78657V12.5114C6.81034 12.6107 6.73002 12.691 6.63079 12.691Z" fill="#3D3D3D"/>
<path d="M7.38676 12.691C7.28754 12.691 7.20721 12.6107 7.20721 12.5114V7.78657C7.20721 7.68735 7.28754 7.60703 7.38676 7.60703C7.48598 7.60703 7.5663 7.68735 7.5663 7.78657V12.5114C7.5663 12.6107 7.48598 12.691 7.38676 12.691Z" fill="#3D3D3D"/>
<path d="M10.6422 7.88116C9.1397 7.88116 7.86398 6.61017 7.86398 5.10293C7.86398 3.5957 9.13498 2.32471 10.6422 2.32471C11.1856 2.32471 11.7006 2.49008 12.2061 2.82554C12.2865 2.88224 12.3101 2.99091 12.2534 3.07124C12.2014 3.15156 12.088 3.17518 12.0077 3.11849C11.5541 2.81609 11.1194 2.67435 10.6422 2.67435C9.32869 2.67435 8.21835 3.78469 8.21835 5.09348C8.21835 6.40227 9.32869 7.51262 10.6422 7.51262C11.9557 7.51262 13.0613 6.40227 13.0613 5.09348C13.0613 4.76747 12.9857 4.4131 12.8393 4.07764C12.8015 3.98786 12.8393 3.88392 12.9338 3.84612C13.0235 3.80832 13.1275 3.84612 13.1653 3.94061C13.3307 4.32333 13.4157 4.72494 13.4157 5.09821C13.4157 6.60072 12.1447 7.87644 10.6375 7.87644L10.6422 7.88116Z" fill="#3D3D3D"/>
<path d="M15.4616 5.28248H14.1858C14.0866 5.28248 14.0063 5.20215 14.0063 5.10293C14.0063 5.00371 14.0866 4.92339 14.1858 4.92339H15.4616C15.5608 4.92339 15.6411 5.00371 15.6411 5.10293C15.6411 5.20215 15.5608 5.28248 15.4616 5.28248Z" fill="#3D3D3D"/>
<path d="M7.09854 5.28248H5.82283C5.7236 5.28248 5.64328 5.20215 5.64328 5.10293C5.64328 5.00371 5.7236 4.92339 5.82283 4.92339H7.09854C7.19776 4.92339 7.27809 5.00371 7.27809 5.10293C7.27809 5.20215 7.19776 5.28248 7.09854 5.28248Z" fill="#3D3D3D"/>
<path d="M12.9574 2.49467C12.9054 2.49467 12.8487 2.47105 12.8156 2.4238C12.7589 2.34348 12.7731 2.2348 12.8534 2.17811C12.8582 2.17338 13.0519 2.02219 13.7795 1.29928C13.8504 1.22841 13.9638 1.22841 14.0299 1.29928C14.1008 1.37015 14.1008 1.47882 14.0299 1.5497C13.274 2.30568 13.0755 2.45687 13.0661 2.46632C13.033 2.48995 12.9952 2.4994 12.9621 2.4994L12.9574 2.49467Z" fill="#3D3D3D"/>
<path d="M10.4343 1.65843C10.4343 1.65843 10.4201 1.65843 10.4154 1.65843C10.3162 1.64898 10.25 1.55921 10.2595 1.45999C10.2595 1.45054 10.2831 1.20957 10.2595 0.179545C10.2595 0.0803229 10.3351 0 10.4343 0C10.5335 0 10.6139 0.075598 10.6139 0.17482C10.6375 1.24264 10.6139 1.49306 10.6139 1.50251C10.6044 1.59228 10.5288 1.65843 10.439 1.65843H10.4343Z" fill="#3D3D3D"/>
<path d="M10.628 10.2104C10.628 10.2104 10.6138 10.2104 10.6091 10.2104C10.5099 10.201 10.4437 10.1112 10.4532 10.012C10.4532 10.0025 10.4768 9.76154 10.4532 8.73152C10.4532 8.63229 10.5288 8.55197 10.628 8.55197C10.7272 8.55197 10.8076 8.62757 10.8076 8.72679C10.8312 9.79461 10.8076 10.045 10.8076 10.0545C10.7981 10.1443 10.7225 10.2104 10.6327 10.2104H10.628Z" fill="#3D3D3D"/>
<path d="M8.05769 2.49479C8.00572 2.49479 7.95374 2.47117 7.91594 2.42392C7.91122 2.41919 7.76002 2.22547 7.02294 1.50729C6.95207 1.43642 6.95207 1.32775 7.02294 1.25687C7.09382 1.186 7.20249 1.186 7.27336 1.25687C8.03879 2.00341 8.19471 2.20185 8.19944 2.2113C8.26086 2.2869 8.24668 2.40029 8.16636 2.46172C8.13329 2.48534 8.09549 2.49952 8.05769 2.49952V2.49479Z" fill="#3D3D3D"/>
<path d="M14.1764 8.46705C14.1244 8.46705 14.0725 8.44343 14.0347 8.39618C14.0299 8.38673 13.8787 8.19773 13.1417 7.47955C13.0708 7.40868 13.0708 7.30001 13.1417 7.22913C13.2125 7.15826 13.3212 7.15826 13.3921 7.22913C14.1575 7.97566 14.3134 8.17411 14.3181 8.18356C14.3796 8.25916 14.3654 8.37255 14.2851 8.43398C14.252 8.4576 14.2142 8.47178 14.1764 8.47178V8.46705Z" fill="#3D3D3D"/>
</g>
<defs>
<clipPath id="clip0_4_2187">
<rect width="16" height="16" fill="white"/>
</clipPath>
</defs>
</svg>

<svg xmlns="http://www.w3.org/2000/svg" width="16" height="16" fill="currentColor" class="si si-PV_Panel_Sun" viewBox="0 0 16 16">
  <g clip-path="url(#a)">
    <path d="M8.001 12.691h-6.71c-.524 0-.982-.458-.982-.978l.425-3.378c0-.501.458-.96.978-.96h5.911c.52 0 .978.459.978.979l.43 3.364v.028c-.109.468-.496.94-1.03.94zM1.717 7.73a.65.65 0 0 0-.624.624l-.425 3.378c0 .307.298.605.628.605h6.71c.335 0 .59-.317.67-.633l-.42-3.322c0-.35-.298-.647-.628-.647H1.717zm6.005 8.278q-.079.001-.18-.005c-.075 0-.16-.005-.25-.005H2q-.13-.001-.26.005c-.35.014-.51.014-.609-.08l-.052-.052-.01-.16.61-.714c.028-.029.213-.203.605-.203h4.678c.34 0 .576.094.633.24l.486.68v.133l-.066.08c-.066.067-.16.08-.293.08m-5.438-.865c-.241 0-.345.09-.35.095l-.354.415h.146c.09 0 .185-.004.274-.004h5.292q.144-.001.265.005h.047l-.326-.454a.8.8 0 0 0-.316-.047H2.284z"/>
    <path d="M8.658 10.896H.63a.18.18 0 1 1 0-.36h8.028a.18.18 0 1 1 0 .36m-.279-1.512H.866a.18.18 0 1 1 0-.36H8.38a.18.18 0 1 1 0 .36"/>
    <path d="M1.859 12.691a.18.18 0 0 1-.18-.18V7.787a.18.18 0 1 1 .36 0v4.724c0 .1-.081.18-.18.18m.756 0a.18.18 0 0 1-.18-.18V7.787a.18.18 0 1 1 .36 0v4.724c0 .1-.081.18-.18.18m1.653 0a.18.18 0 0 1-.18-.18V7.787a.18.18 0 1 1 .36 0v4.724c0 .1-.08.18-.18.18m.378 2.409a.18.18 0 0 1-.18-.179v-2.41a.18.18 0 1 1 .36 0v2.41c0 .1-.08.18-.18.18m.378-2.41a.18.18 0 0 1-.18-.18V7.787a.18.18 0 1 1 .36 0v4.724c0 .1-.08.18-.18.18m1.606 0a.18.18 0 0 1-.179-.18V7.787a.18.18 0 1 1 .36 0v4.724c0 .1-.081.18-.18.18m.756 0a.18.18 0 0 1-.18-.18V7.787a.18.18 0 1 1 .36 0v4.724c0 .1-.081.18-.18.18m3.255-4.81c-1.502 0-2.778-1.27-2.778-2.778 0-1.507 1.271-2.778 2.778-2.778.544 0 1.059.165 1.564.5.08.057.104.166.047.246a.175.175 0 0 1-.245.047c-.454-.302-.889-.444-1.366-.444-1.313 0-2.424 1.11-2.424 2.42 0 1.308 1.11 2.419 2.424 2.419s2.42-1.11 2.42-2.42c0-.326-.076-.68-.223-1.015a.173.173 0 0 1 .095-.232c.09-.038.194 0 .231.095.166.382.25.784.25 1.157 0 1.503-1.27 2.778-2.777 2.778zm4.82-2.599h-1.276a.18.18 0 1 1 0-.359h1.276a.18.18 0 1 1 0 .36m-8.363-.001H5.823a.18.18 0 1 1 0-.359h1.276a.18.18 0 1 1 0 .36m5.858-2.788a.18.18 0 0 1-.141-.071.174.174 0 0 1 .037-.246c.005-.005.199-.156.927-.879.07-.07.184-.07.25 0 .07.071.07.18 0 .25-.756.757-.954.908-.964.917a.2.2 0 0 1-.104.033zm-2.523-.837h-.019a.177.177 0 0 1-.155-.198c0-.01.023-.25 0-1.28 0-.1.075-.18.174-.18.1 0 .18.076.18.175.023 1.068 0 1.318 0 1.328a.175.175 0 0 1-.175.155zm.194 8.552h-.019a.177.177 0 0 1-.156-.198c0-.01.024-.25 0-1.28 0-.1.076-.18.175-.18.1 0 .18.076.18.175.023 1.068 0 1.318 0 1.328a.174.174 0 0 1-.175.155zm-2.57-7.715a.18.18 0 0 1-.142-.071c-.005-.005-.156-.199-.893-.917a.174.174 0 0 1 0-.25.173.173 0 0 1 .25 0c.766.746.922.945.926.954a.176.176 0 0 1-.033.25.2.2 0 0 1-.108.039zm6.118 5.972a.18.18 0 0 1-.141-.07c-.005-.01-.156-.2-.893-.917a.174.174 0 0 1 0-.25.17.17 0 0 1 .25 0c.766.746.921.944.926.954a.176.176 0 0 1-.033.25.2.2 0 0 1-.109.038z"/>
  </g>
  <defs>
    <clipPath id="a">
      <path d="M0 0h16v16H0z"/>
    </clipPath>
  </defs>
</svg>
